X:16649
T:The Drunken Landlady
R:Reel
M:C|
L:1/8
A:Ireland
K:EDor
FA | "Em" BE ~E2 BAFA |BE ~E2 BAFB |"D" ABAF D2 AD |"Bm" FGAd BAFA  |
"Em" BE ~E2 BAFA | B2 cA BAFB | "D" A2 Bc dfed | dBAF "Em" E2 :|
FA | "Em7" Beed ~e2 de |"Bm"  ~f2 df efdB | "D" ABAF D2AD |"Bm"  FGAd BAFA | 
"Em" Beed ~e2 de | "Bm" ~f2 df efdB |"D"  A2 Bc dfec | dBAF "Em" E2:|
